X: 5445
T: Bunch Of Green Rushes, The
R: reel
M: 4/4
K: Dmixolydian
d|TcAGE ~=F3 A|TcAGc Ad ~d2|TcAGE =F2eg|fdec Ad d2|
TcAGE T=F2 Ad|TcAGc Ad{e}d2|TcAGE =FAdg|fdec Ad ~d2||
Ad{e}dB cAGE|~=F2 Ad cAGc|Ad{e}dB cAGA|(B/c/d) eg fdec|
Ad{e}dB cAGE|~=F2 Ad cAGc|Ad{e}dB cAGA|(B/c/d) eg fdd||
A|d3 f adfd|Tc2 ec gcec|d2 fd adfd|cAGc ADD z|
d2 fd adfd|Tc2 ec gc e/f/g|~a3g eged|cAGc ADD||

